X: 24
T: Tobin's Favorite
I: Tobin's Favorite	J-19	D	jig
M: 6/8
R: jig
K: D
A/F/|: "D"DFA ddd| "A"ecA cde| "D"fff "G"ggg| "A"ecA GFE|
       "D"DFA dcd| "A"ecA efg| "D"f/g/af "A"gec| edc "D"ddd:|
|:"D"dfa agf| "G"e/f/ge "Em"efg| "D"fef "G"ggg| "A"ecA GFE|
"D"DFA ddd| "A"ecA efg| "D"f/g/af "A"gec| edc "D"ddd:|
%%text Roaring Jelly  J-19

%%vskip 6pt

